src/icons/search.svg

<svg clip-rule="evenodd" fill-rule="evenodd" height="800" stroke-linejoin="round" stroke-miterlimit="2" width="800" xmlns="http://www.w3.org/2000/svg"><path d="m781.365 748.047-243.436-243.435c45.883-53.506 73.836-122.824 73.836-198.73 0-168.658-137.224-305.882-305.883-305.882-81.741 0-158.541 31.812-216.329 89.6-57.788 57.741-89.553 134.588-89.553 216.282 0 168.659 137.224 305.883 305.882 305.883 75.859 0 145.224-27.953 198.777-73.836l243.435 243.436zm-475.483-183.341c-142.729 0-258.823-116.094-258.823-258.824 0-69.176 26.87-134.164 75.765-183.058 48.894-48.848 113.882-75.765 183.058-75.765 142.73 0 258.824 116.094 258.824 258.823 0 142.73-116.094 258.824-258.824 258.824z" fill-rule="nonzero"/></svg>

<?xml version="1.0" encoding="UTF-8" standalone="no"?>
<!DOCTYPE svg PUBLIC "-//W3C//DTD SVG 1.1//EN" "http://www.w3.org/Graphics/SVG/1.1/DTD/svg11.dtd">
<svg width="800px" height="800px" version="1.1" xmlns="http://www.w3.org/2000/svg" xmlns:xlink="http://www.w3.org/1999/xlink" xml:space="preserve" xmlns:serif="http://www.serif.com/" style="fill-rule:evenodd;clip-rule:evenodd;stroke-linejoin:round;stroke-miterlimit:2;">
    <path d="M781.365,748.047L537.929,504.612C583.812,451.106 611.765,381.788 611.765,305.882C611.765,137.224 474.541,0 305.882,0C224.141,0 147.341,31.812 89.553,89.6C31.765,147.341 -0,224.188 -0,305.882C-0,474.541 137.224,611.765 305.882,611.765C381.741,611.765 451.106,583.812 504.659,537.929L748.094,781.365L781.365,748.047ZM305.882,564.706C163.153,564.706 47.059,448.612 47.059,305.882C47.059,236.706 73.929,171.718 122.824,122.824C171.718,73.976 236.706,47.059 305.882,47.059C448.612,47.059 564.706,163.153 564.706,305.882C564.706,448.612 448.612,564.706 305.882,564.706Z" style="fill-rule:nonzero;"/>
</svg>
